src/icons/template.svg

<svg xmlns="http://www.w3.org/2000/svg" width="24" height="24" fill="none"><path fill="currentColor" fill-rule="evenodd" d="M2 2v20h20V2zm18 2h-9v7h9zm0 9h-9v7h9zM9 4H4v16h5z" clip-rule="evenodd"/></svg>

<svg width="24" height="24" viewBox="0 0 24 24" fill="none" xmlns="http://www.w3.org/2000/svg">
<path fill-rule="evenodd" clip-rule="evenodd" d="M2 2V22H22V2H2ZM20 4H11V11L20 11V4ZM20 13H11V20H20V13ZM9 4H4V20H9V4Z" fill="black"/>
</svg>
